Adwaita++/apps/scalable/popcorntime.svg

<svg fill="none" height="128" viewBox="0 0 128 128" width="128" xmlns="http://www.w3.org/2000/svg" xmlns:xlink="http://www.w3.org/1999/xlink">
  <linearGradient id="lg1">
    <stop offset="0" stop-color="#e01b24"/>
    <stop offset="1" stop-color="#e01b24"/>
  </linearGradient>
  <linearGradient id="paint0_linear" gradientUnits="userSpaceOnUse" x1="67.395" x2="66.474" xlink:href="#lg1" y1="129.118" y2="65.348"/>
  <linearGradient id="lg2">
    <stop offset="0" stop-color="#deddda"/>
    <stop offset="1" stop-color="#fff"/>
  </linearGradient>
  <linearGradient id="paint1_linear" gradientUnits="userSpaceOnUse" x1="73.482" x2="77.408" xlink:href="#lg2" y1="129.36" y2="67.122"/>
  <linearGradient id="paint2_linear" gradientUnits="userSpaceOnUse" x1="-245.863" x2="-243.41" xlink:href="#lg1" y1="-36.556" y2="-33.491"/>
  <linearGradient id="paint3_linear" gradientUnits="userSpaceOnUse" x1="86.115" x2="98.306" xlink:href="#lg2" y1="127.326" y2="65.51"/>
  <linearGradient id="paint4_linear" gradientUnits="userSpaceOnUse" x1="46.153" x2="34.83" xlink:href="#lg2" y1="127.923" y2="65.489"/>
  <linearGradient id="paint5_linear" gradientUnits="userSpaceOnUse" x1="61.384" x2="57.151" xlink:href="#lg2" y1="128.746" y2="66.508"/>
  <linearGradient id="paint6_linear" gradientUnits="userSpaceOnUse" x1="52.998" x2="45.415" xlink:href="#lg1" y1="128.652" y2="63.962"/>
  <path d="m74.9386 4.00071c-11.8312.005-22.4876 7.11479-26.9765 17.99879-2.6458-2.2557-6.0084-3.4956-9.4852-3.4976-8.055 0-14.5853 6.4925-14.5853 14.5012.005 3.1881 1.0642 6.2849 3.0124 8.8083-4.1003 2.2199-6.6534 6.489-6.6583 11.1311 0 7.0077 5.7133 12.6888 12.7615 12.6888.6103-.0043 1.2195-.0518 1.823-.1422v3.7671c0 6.0255 4.8788 10.8763 10.9386 10.8763h36.4624c6.0598 0 10.9386-4.8508 10.9386-10.8763v-.1491c.6027.0931 1.2125.1428 1.823.1491 7.0482 0 12.7612-5.681 12.7612-12.6887-.002-4.5925-2.5-8.8251-6.53-11.0674 1.886-3.897 2.872-8.1682 2.884-12.4977-.002-3.8127-.757-7.5875-2.224-11.107-1.466-3.5196-3.6136-6.7144-6.3193-9.4008-5.4837-5.44441-12.8987-8.49748-20.6261-8.49389z" fill="#e2cebe"/>
  <path d="m34.8302 65.4894c-3.782.0464 6.0073 11.499 6.3059 14.4258l-1.0248 41.4178c.7177.159 1.4411.313 2.17.46 1.6553.295 3.3341.56 5.0327.793l.2092.032c.4157.068.8328.134 1.2512.198 2.1947.289 4.4185.526 6.663.71l.013.002c2.2489.183 4.5157.314 6.7919.39.3255.007.651.012.9767.017.0002-.007.0036-.012.0037-.019v-.002c1.2108.044 2.4238.073 3.6378.086 1.2852-.005 2.5699-.026 3.8525-.065.0003-.004.0016-.006.0019-.01l1.2755-50.841c1.9053-1.1766-2.1322-4.7806-4.7807-4.7806h-.5508c-2.5132 0-4.6124 1.9206-4.7676 4.3791-.129-2.5969-2.4266-4.5672-5.072-4.4389l-.5602.028c-2.4033.1168-4.2772 1.0484-4.579 3.6322l-.0168-.2166c-.1982-2.7137-2.4399-4.2674-5.296-4.4016-4.3805-.4578-5.0201 2.056-4.9189 5.0104l-.3156-2.6331c-.2008-1.6771-2.6347-4.1513-5.494-4.1532-.2878-.0167-.5564-.0236-.8086-.0205zm64.2847 0c-.2521-.0031-.5207.0038-.8086.0205-23.1033 14.8273-30.7102 56.8581-27.5839 58.4061.0001.007.0035.012.0037.019.3256-.005.6512-.011.9767-.017 2.2762-.077 4.543-.207 6.7918-.391l.0131-.001c2.2445-.184 4.4683-.421 6.663-.71.4184-.064.8355-.13 1.2512-.198l.2092-.032c1.6985-.233 3.3774-.498 5.0327-.793.7289-.148 1.4523-.301 2.17-.46l-.2645-36.1964c.2987-2.9268 9.3277-19.6009 5.5456-19.6473z" opacity=".6"/>
  <path d="m63.0752 120.086c1.2598.046 2.522.076 3.7853.089 1.2852-.004 2.5699-.026 3.8525-.065.0003-.004.0016-.006.0019-.01l1.2755-50.8406c.0665-2.6476-2.1322-4.7806-4.7807-4.7806h-.5508c-2.6485 0-4.843 2.1329-4.7807 4.7806z" fill="url(#paint0_linear)"/>
  <path d="m70.7261 120.11c.3256-.005.6512-.01.9767-.017 2.2762-.076 4.543-.206 6.7918-.39l.0131-.002 3.7816-50.2377c.2748-3.6502-1.8111-4.8804-4.6033-5.016l-.5602-.028c-2.6825-.1301-5.0108 2.2467-5.0794 4.5472l-1.324 51.1245c.0001.007.0035.012.0037.019z" fill="url(#paint1_linear)"/>
  <path d="m78.4946 119.703c2.249-.184 4.4772-.422 6.6761-.711.4184-.065.8355-.131 1.2512-.198l6.0655-49.904c.1737-3.1333-.3208-5.9082-4.9095-5.4286-2.8561.1341-5.0979 1.6879-5.2961 4.4015z" fill="url(#paint2_linear)"/>
  <path d="m86.4219 118.794c1.6986-.234 3.5866-.531 5.2419-.826.7289-.147 1.4523-.3 2.17-.459l8.6502-50.6489c.318-3.1219.428-5.4415-4.1777-5.1747-2.8593.0019-5.2932 2.4761-5.494 4.1532-2.8556 17.4769-6.3904 52.9554-6.3904 52.9554z" fill="url(#paint3_linear)"/>
  <path d="m47.3149 118.762c-1.6986-.234-3.3774-.499-5.0327-.794-.7289-.147-1.4523-.3-2.17-.459l-8.65-50.6489c-.3185-3.1219-.4285-5.4415 4.1775-5.1747 2.8592.0019 5.2931 2.4761 5.494 4.1532l6.241 52.1034c.0221.294-.043.544-.0598.82z" fill="url(#paint4_linear)"/>
  <path d="m63.2199 120.11c-.3256-.004-.6512-.01-.9767-.017-2.2762-.076-4.543-.206-6.7919-.39-.0043-.001-.0087-.001-.013-.002l-3.7816-50.2378c-.2748-3.6501 1.8111-4.8803 4.6033-5.0159l.5602-.028c2.6824-.1301 5.0108 1.8964 5.0794 4.5472l1.324 51.1245c-.0001.007-.0035.012-.0037.019z" fill="url(#paint5_linear)"/>
  <path d="m55.4513 119.703c-2.2489-.184-4.4771-.422-6.6761-.711-.4183-.065-.8354-.131-1.2511-.198l-6.0655-49.904c-.1738-3.1333.3208-5.9082 4.9095-5.4286 2.8561.1341 5.0978 1.6879 5.2961 4.4015z" fill="url(#paint6_linear)"/>
  <path d="m74.9386 46.1301c0 6.0065-4.8977 10.8755-10.9386 10.8755s-10.9386-4.869-10.9386-10.8755z" fill="#c01c28"/>
  <path d="m84.0537 46.13c4.0278 0 7.293-3.2464 7.293-7.251s-3.2652-7.251-7.293-7.251-7.293 3.2464-7.293 7.251 3.2652 7.251 7.293 7.251z" fill="#3f3f3f"/>
  <path d="m86.7887 38.879c1.5099 0 2.734-1.2173 2.734-2.719s-1.2241-2.719-2.734-2.719c-1.51 0-2.734 1.2173-2.734 2.719s1.224 2.719 2.734 2.719z" fill="#fff"/>
  <path d="m43.9457 46.13c4.0278 0 7.293-3.2464 7.293-7.251s-3.2652-7.251-7.293-7.251-7.293 3.2464-7.293 7.251 3.2652 7.251 7.293 7.251z" fill="#3f3f3f"/>
  <path d="m46.6807 38.879c1.5099 0 2.734-1.2173 2.734-2.719s-1.2241-2.719-2.734-2.719c-1.51 0-2.734 1.2173-2.734 2.719s1.224 2.719 2.734 2.719z" fill="#fff"/>
</svg>

<svg xmlns="http://www.w3.org/2000/svg" fill="none" width="128" height="128" viewBox="0 0 128 128">
 <path fill="#E2CEBE" d="M74.9386 4.00071C63.1074 4.00571 52.451 11.1155 47.9621 21.9995C45.3163 19.7438 41.9537 18.5039 38.4769 18.5019C30.4219 18.5019 23.8916 24.9944 23.8916 33.0031C23.8966 36.1912 24.9558 39.288 26.904 41.8114C22.8037 44.0313 20.2506 48.3004 20.2457 52.9425C20.2457 59.9502 25.959 65.6313 33.0072 65.6313C33.6175 65.627 34.2267 65.5795 34.8302 65.4891V69.2562C34.8302 75.2817 39.709 80.1325 45.7688 80.1325H82.2312C88.291 80.1325 93.1698 75.2817 93.1698 69.2562V69.1071C93.7725 69.2002 94.3823 69.2499 94.9928 69.2562C102.041 69.2562 107.754 63.5752 107.754 56.5675C107.752 51.975 105.254 47.7424 101.224 45.5001C103.11 41.6031 104.096 37.3319 104.108 33.0024C104.106 29.1897 103.351 25.4149 101.884 21.8954C100.418 18.3758 98.2704 15.181 95.5647 12.4946C90.081 7.05019 82.666 3.99712 74.9386 4.00071Z"/>
 <path opacity=".6" d="M34.8302 65.4894C31.0482 65.5358 40.8375 76.9884 41.1361 79.9152L40.1113 121.333C40.829 121.492 41.5524 121.646 42.2813 121.793C43.9366 122.088 45.6154 122.353 47.314 122.586L47.5232 122.618C47.9389 122.686 48.356 122.752 48.7744 122.816C50.9691 123.105 53.1929 123.342 55.4374 123.526L55.4504 123.528C57.6993 123.711 59.9661 123.842 62.2423 123.918C62.5678 123.925 62.8933 123.93 63.219 123.935C63.2192 123.928 63.2226 123.923 63.2227 123.916V123.914C64.4335 123.958 65.6465 123.987 66.8605 124C68.1457 123.995 69.4304 123.974 70.713 123.935C70.7133 123.931 70.7146 123.929 70.7149 123.925L71.9904 73.084C73.8957 71.9074 69.8582 68.3034 67.2097 68.3034H66.6589C64.1457 68.3034 62.0465 70.224 61.8913 72.6825C61.7623 70.0856 59.4647 68.1153 56.8193 68.2436L56.2591 68.2716C53.8558 68.3884 51.9819 69.32 51.6801 71.9038L51.6633 71.6872C51.4651 68.9735 49.2234 67.4198 46.3673 67.2856C41.9868 66.8278 41.3472 69.3416 41.4484 72.296L41.1328 69.6629C40.932 67.9858 38.4981 65.5116 35.6388 65.5097C35.351 65.493 35.0824 65.4861 34.8302 65.4892L34.8302 65.4894ZM99.1149 65.4894C98.8628 65.4863 98.5942 65.4932 98.3063 65.5099C75.203 80.3372 67.5961 122.368 70.7224 123.916C70.7225 123.923 70.7259 123.928 70.7261 123.935C71.0517 123.93 71.3773 123.924 71.7028 123.918C73.979 123.841 76.2458 123.711 78.4946 123.527L78.5077 123.526C80.7522 123.342 82.976 123.105 85.1707 122.816C85.5891 122.752 86.0062 122.686 86.4219 122.618L86.6311 122.586C88.3296 122.353 90.0085 122.088 91.6638 121.793C92.3927 121.645 93.1161 121.492 93.8338 121.333L93.5693 85.1366C93.868 82.2098 102.897 65.5357 99.1149 65.4893L99.1149 65.4894Z"/>
 <path fill="url(#paint0_linear)" d="M63.0752 120.086C64.335 120.132 65.5972 120.162 66.8605 120.175C68.1457 120.171 69.4304 120.149 70.713 120.11C70.7133 120.106 70.7146 120.104 70.7149 120.1L71.9904 69.2594C72.0569 66.6118 69.8582 64.4788 67.2097 64.4788H66.6589C64.0104 64.4788 61.8159 66.6117 61.8782 69.2594L63.0752 120.086Z"/>
 <path fill="url(#paint1_linear)" d="M70.7261 120.11C71.0517 120.105 71.3773 120.1 71.7028 120.093C73.979 120.017 76.2458 119.887 78.4946 119.703L78.5077 119.701L82.2893 69.4633C82.5641 65.8131 80.4782 64.5829 77.686 64.4473L77.1258 64.4193C74.4433 64.2892 72.115 66.666 72.0464 68.9665L70.7224 120.091C70.7225 120.098 70.7259 120.103 70.7261 120.11L70.7261 120.11Z"/>
 <path fill="url(#paint2_linear)" d="M78.4946 119.703C80.7436 119.519 82.9718 119.281 85.1707 118.992C85.5891 118.927 86.0062 118.861 86.4219 118.794L92.4874 68.89C92.6611 65.7567 92.1666 62.9818 87.5779 63.4614C84.7218 63.5955 82.48 65.1493 82.2818 67.8629L78.4946 119.703Z"/>
 <path fill="url(#paint3_linear)" d="M86.4219 118.794C88.1205 118.56 90.0085 118.263 91.6638 117.968C92.3927 117.821 93.1161 117.668 93.8338 117.509L102.484 66.8601C102.802 63.7382 102.912 61.4186 98.3063 61.6854C95.447 61.6873 93.0131 64.1615 92.8123 65.8386C89.9567 83.3155 86.4219 118.794 86.4219 118.794V118.794Z"/>
 <path fill="url(#paint4_linear)" d="M47.3149 118.762C45.6163 118.528 43.9375 118.263 42.2822 117.968C41.5533 117.821 40.8299 117.668 40.1122 117.509L31.4622 66.8601C31.1437 63.7382 31.0337 61.4186 35.6397 61.6854C38.4989 61.6873 40.9328 64.1615 41.1337 65.8386L47.3747 117.942C47.3968 118.236 47.3317 118.486 47.3149 118.762V118.762Z"/>
 <path fill="url(#paint5_linear)" d="M63.2199 120.11C62.8943 120.106 62.5687 120.1 62.2432 120.093C59.967 120.017 57.7002 119.887 55.4513 119.703C55.447 119.702 55.4426 119.702 55.4383 119.701L51.6567 69.4632C51.3819 65.8131 53.4678 64.5829 56.26 64.4473L56.8202 64.4193C59.5026 64.2892 61.831 66.3157 61.8996 68.9665L63.2236 120.091C63.2235 120.098 63.2201 120.103 63.2199 120.11L63.2199 120.11Z"/>
 <path fill="url(#paint6_linear)" d="M55.4513 119.703C53.2024 119.519 50.9742 119.281 48.7752 118.992C48.3569 118.927 47.9398 118.861 47.5241 118.794L41.4586 68.89C41.2848 65.7567 41.7794 62.9818 46.3681 63.4614C49.2242 63.5955 51.4659 65.1493 51.6642 67.8629L55.4513 119.703Z"/>
 <path fill="#C01C28" d="M74.9386 46.1301C74.9386 52.1366 70.0409 57.0056 64 57.0056C57.9591 57.0056 53.0614 52.1366 53.0614 46.1301H74.9386Z"/>
 <path fill="#3F3F3F" d="M84.0537 46.13C88.0815 46.13 91.3467 42.8836 91.3467 38.879C91.3467 34.8744 88.0815 31.628 84.0537 31.628C80.0259 31.628 76.7607 34.8744 76.7607 38.879C76.7607 42.8836 80.0259 46.13 84.0537 46.13Z"/>
 <path fill="#fff" d="M86.7887 38.879C88.2986 38.879 89.5227 37.6617 89.5227 36.16C89.5227 34.6583 88.2986 33.441 86.7887 33.441C85.2787 33.441 84.0547 34.6583 84.0547 36.16C84.0547 37.6617 85.2787 38.879 86.7887 38.879Z"/>
 <path fill="#3F3F3F" d="M43.9457 46.13C47.9735 46.13 51.2387 42.8836 51.2387 38.879C51.2387 34.8744 47.9735 31.628 43.9457 31.628C39.9179 31.628 36.6527 34.8744 36.6527 38.879C36.6527 42.8836 39.9179 46.13 43.9457 46.13Z"/>
 <path fill="#fff" d="M46.6807 38.879C48.1906 38.879 49.4147 37.6617 49.4147 36.16C49.4147 34.6583 48.1906 33.441 46.6807 33.441C45.1707 33.441 43.9467 34.6583 43.9467 36.16C43.9467 37.6617 45.1707 38.879 46.6807 38.879Z"/>
 <defs>
  <linearGradient id="paint0_linear" x1="67.395" x2="66.474" y1="129.118" y2="65.348" gradientUnits="userSpaceOnUse">
   <stop stop-color="#E01B24"/>
   <stop offset="1" stop-color="#E01B24"/>
  </linearGradient>
  <linearGradient id="paint1_linear" x1="73.482" x2="77.408" y1="129.36" y2="67.122" gradientUnits="userSpaceOnUse">
   <stop stop-color="#DEDDDA"/>
   <stop offset="1" stop-color="#fff"/>
  </linearGradient>
  <linearGradient id="paint2_linear" x1="-245.863" x2="-243.41" y1="-36.556" y2="-33.491" gradientUnits="userSpaceOnUse">
   <stop stop-color="#E01B24"/>
   <stop offset="1" stop-color="#E01B24"/>
  </linearGradient>
  <linearGradient id="paint3_linear" x1="86.115" x2="98.306" y1="127.326" y2="65.51" gradientUnits="userSpaceOnUse">
   <stop stop-color="#DEDDDA"/>
   <stop offset="1" stop-color="#fff"/>
  </linearGradient>
  <linearGradient id="paint4_linear" x1="46.153" x2="34.83" y1="127.923" y2="65.489" gradientUnits="userSpaceOnUse">
   <stop stop-color="#DEDDDA"/>
   <stop offset="1" stop-color="#fff"/>
  </linearGradient>
  <linearGradient id="paint5_linear" x1="61.384" x2="57.151" y1="128.746" y2="66.508" gradientUnits="userSpaceOnUse">
   <stop stop-color="#DEDDDA"/>
   <stop offset="1" stop-color="#fff"/>
  </linearGradient>
  <linearGradient id="paint6_linear" x1="52.998" x2="45.415" y1="128.652" y2="63.962" gradientUnits="userSpaceOnUse">
   <stop stop-color="#E01B24"/>
   <stop offset="1" stop-color="#E01B24"/>
  </linearGradient>
 </defs>
</svg>
